public/icons/cloudflare-icon.svg

<svg width="128" height="128" viewBox="0 0 128 128" fill="none" xmlns="http://www.w3.org/2000/svg">
<g clip-path="url(#clip0_67_47)">
<path d="M98 0H30C13.4315 0 0 13.4315 0 30V98C0 114.569 13.4315 128 30 128H98C114.569 128 128 114.569 128 98V30C128 13.4315 114.569 0 98 0Z" fill="#F4F2ED"/>
<mask id="mask0_67_47" style="mask-type:luminance" maskUnits="userSpaceOnUse" x="14" y="14" width="100" height="100">
<path d="M14 14H114V114H14V14Z" fill="white"/>
</mask>
<g mask="url(#mask0_67_47)">
<path d="M39.5 85.875H105.678V67.5625L93.106 60.353L90.9375 59.4155L39.5 59.7685V85.875Z" fill="white"/>
<path d="M82.7875 83.4435C83.403 81.3345 83.169 79.4 82.144 77.9625C81.2065 76.6435 79.622 75.8811 77.719 75.7935L41.6405 75.325C41.406 75.325 41.203 75.206 41.0845 75.031C40.966 74.856 40.9375 74.625 40.997 74.3875C41.1155 74.0345 41.4655 73.772 41.847 73.7435L78.247 73.275C82.5595 73.0685 87.247 69.581 88.8845 65.306L90.9655 59.8845C91.0574 59.6618 91.0792 59.4164 91.028 59.181C88.6845 48.572 79.2155 40.6595 67.903 40.6595C57.4655 40.6595 48.622 47.4 45.453 56.753C43.3045 55.1587 40.6413 54.4172 37.978 54.672C32.9655 55.172 28.9155 59.1845 28.453 64.197C28.3318 65.4435 28.4206 66.7014 28.7155 67.9185C24.7722 68.0253 21.0267 69.6685 18.2776 72.4976C15.5286 75.3267 13.9936 79.1178 14 83.0625C14 83.7935 14.0625 84.531 14.147 85.2595C14.2095 85.6125 14.5 85.875 14.85 85.875H81.4375C81.6291 85.8715 81.8147 85.8073 81.9675 85.6915C82.1202 85.5758 82.2323 85.4146 82.2875 85.231L82.7875 83.4435Z" fill="#F38020"/>
<path d="M94.275 60.2595L93.275 60.2905C93.0405 60.2905 92.8375 60.4655 92.7435 60.697L91.3375 65.5905C90.722 67.7 90.956 69.6345 91.981 71.072C92.9185 72.3905 94.503 73.153 96.406 73.2405L104.085 73.7095C104.319 73.7095 104.522 73.828 104.641 74.003C104.759 74.178 104.788 74.4405 104.728 74.647C104.61 75 104.26 75.2625 103.878 75.2905L95.878 75.7595C91.5405 75.9655 86.878 79.453 85.2405 83.728L84.653 85.222C84.5345 85.5155 84.7405 85.8095 85.0595 85.8095H112.55C112.709 85.8115 112.864 85.7607 112.992 85.6651C113.119 85.5695 113.211 85.4344 113.253 85.281C113.741 83.5477 113.992 81.7566 114 79.956C113.985 74.7321 111.901 69.7269 108.204 66.036C104.507 62.3451 99.4989 60.2691 94.275 60.2625" fill="#FAAE40"/>
</g>
</g>
<defs>
<clipPath id="clip0_67_47">
<rect width="128" height="128" fill="white"/>
</clipPath>
</defs>
</svg>

<svg xmlns="http://www.w3.org/2000/svg" width="128" height="128" fill="none"><g clip-path="url(#a)"><path fill="#F4F2ED" d="M98 0H30C13.431 0 0 13.431 0 30v68c0 16.569 13.431 30 30 30h68c16.569 0 30-13.431 30-30V30c0-16.569-13.431-30-30-30Z"/><mask id="b" width="100" height="100" x="14" y="14" maskUnits="userSpaceOnUse" style="mask-type:luminance"><path fill="#fff" d="M14 14h100v100H14V14Z"/></mask><g mask="url(#b)"><path fill="#fff" d="M39.5 85.875h66.178V67.562l-12.572-7.209-2.168-.938-51.438.354v26.106Z"/><path fill="#F38020" d="M82.787 83.444c.616-2.11.382-4.044-.643-5.481-.938-1.32-2.522-2.082-4.425-2.17l-36.078-.468a.67.67 0 0 1-.556-.294c-.119-.175-.148-.406-.088-.644a.986.986 0 0 1 .85-.644l36.4-.468c4.313-.207 9-3.694 10.638-7.969l2.08-5.421c.092-.223.114-.469.063-.704C88.684 48.572 79.215 40.66 67.903 40.66c-10.438 0-19.281 6.74-22.45 16.093a10.815 10.815 0 0 0-7.475-2.081c-5.013.5-9.063 4.513-9.525 9.525a11.2 11.2 0 0 0 .262 3.721A15.125 15.125 0 0 0 14 83.063c0 .731.063 1.469.147 2.198a.725.725 0 0 0 .703.615h66.588a.905.905 0 0 0 .85-.644l.5-1.787Z"/><path fill="#FAAE40" d="m94.275 60.26-1 .03c-.235 0-.438.175-.532.407l-1.405 4.894c-.616 2.109-.382 4.044.643 5.481.938 1.319 2.522 2.081 4.425 2.168l7.679.47a.67.67 0 0 1 .556.293.813.813 0 0 1 .087.644.984.984 0 0 1-.85.643l-8 .47c-4.338.206-9 3.693-10.638 7.968l-.587 1.494c-.119.294.087.588.406.588h27.491a.723.723 0 0 0 .703-.529c.488-1.733.739-3.524.747-5.325a19.75 19.75 0 0 0-19.725-19.694"/></g></g><defs><clipPath id="a"><path fill="#fff" d="M0 0h128v128H0z"/></clipPath></defs></svg>
